Sources/FrostedUI/Resources/Icons.xcassets/chevronLeftToLineInBoxSize24.imageset/chevron-left-to-line-in-box-size-24.svg

<svg
  width="24"
  height="24"
  viewBox="0 0 24 24"
  fill="none"
  xmlns="http://www.w3.org/2000/svg"
  data-fui-icon="true"
>
  <path
    d="M2.75 15.75V8.25C2.75 5.21243 5.21243 2.75 8.25 2.75H15.75C18.7876 2.75 21.25 5.21243 21.25 8.25V15.75C21.25 18.7876 18.7876 21.25 15.75 21.25H8.25C5.21243 21.25 2.75 18.7876 2.75 15.75Z"
    stroke="currentColor"
    stroke-width="1.5"
    stroke-linecap="round"
    stroke-linejoin="round"
  />
  <path
    d="M8.75 7.75V16.2499M16.25 7.75L11.75 12L16.25 16.2499"
    stroke="currentColor"
    stroke-width="1.5"
    stroke-linecap="round"
    stroke-linejoin="round"
  />
</svg>

<svg xmlns="http://www.w3.org/2000/svg" width="24" height="24" fill="none" data-fui-icon="true" viewBox="0 0 24 24"><path stroke="currentColor" stroke-linecap="round" stroke-linejoin="round" stroke-width="1.5" d="M2.75 15.75v-7.5a5.5 5.5 0 0 1 5.5-5.5h7.5a5.5 5.5 0 0 1 5.5 5.5v7.5a5.5 5.5 0 0 1-5.5 5.5h-7.5a5.5 5.5 0 0 1-5.5-5.5"/><path stroke="currentColor" stroke-linecap="round" stroke-linejoin="round" stroke-width="1.5" d="M8.75 7.75v8.5m7.5-8.5L11.75 12l4.5 4.25"/></svg>
